X:141
T:Valse des Bois
C:Richard Forest
M:3/4
L:1/4
Z:Transcribed to abc by Mary Lou Knack
R:waltz
K:Em
B,| E&gt;DE| F&gt;EF| GAG| FED| E3| DB,D| E3-| E2 :|
G/A/| B3| BcB| AFD| DEF| G3| GAG| F3-| FGA|B3| BcB| AFD| DEF|
GFE| FED| E3-| EGA|B3| BcB| Add| dcB| G3| GAG|
F3-| FGA|BAB| cde| BAG| AGF| G2G| FED| E3-| E2 |]

